apps/www/public/images/logos/frameworks/react.svg

<svg width="62" height="62" viewBox="0 0 62 62" fill="none" xmlns="http://www.w3.org/2000/svg">
<path d="M45.74 23.6983C45.2739 23.5379 44.7909 23.3861 44.2937 23.2426C44.3754 22.909 44.4504 22.5798 44.5171 22.2561C45.6119 16.9418 44.8961 12.6605 42.4518 11.2509C40.1079 9.89927 36.2748 11.3085 32.4035 14.6776C32.0313 15.0016 31.6579 15.3446 31.2848 15.704C31.0362 15.4662 30.7879 15.2364 30.5403 15.0165C26.4831 11.4141 22.4164 9.89599 19.9744 11.3097C17.6329 12.6652 16.9394 16.69 17.9249 21.7265C18.0201 22.2129 18.1313 22.7097 18.2571 23.2148C17.6816 23.3782 17.1259 23.5524 16.5943 23.7377C11.8376 25.3961 8.7998 27.9952 8.7998 30.6911C8.7998 33.4755 12.0609 36.2683 17.0153 37.9617C17.4063 38.0953 17.812 38.2217 18.2301 38.3416C18.0944 38.8879 17.9763 39.4232 17.8773 39.9454C16.9376 44.8944 17.6714 48.8242 20.0068 50.1711C22.4189 51.5622 26.4673 50.1324 30.4093 46.6865C30.7209 46.4141 31.0336 46.1253 31.3469 45.8225C31.7529 46.2135 32.1582 46.5835 32.5615 46.9306C36.3798 50.2164 40.151 51.5432 42.4842 50.1925C44.894 48.7975 45.6772 44.576 44.6604 39.4399C44.5828 39.0476 44.4924 38.6469 44.3909 38.239C44.6752 38.155 44.9543 38.0682 45.2265 37.978C50.3771 36.2715 53.7282 33.5127 53.7282 30.6911C53.7282 27.9854 50.5924 25.3688 45.74 23.6983ZM44.6228 36.1561C44.3772 36.2375 44.1251 36.3161 43.8682 36.3923C43.2996 34.5922 42.5322 32.6781 41.5931 30.7005C42.4893 28.7699 43.227 26.8803 43.7797 25.0919C44.2393 25.2249 44.6854 25.3651 45.1152 25.5132C49.2728 26.9444 51.8089 29.0605 51.8089 30.6911C51.8089 32.4279 49.07 34.6826 44.6228 36.1561ZM42.7776 39.8126C43.2272 42.0837 43.2914 44.1371 42.9936 45.7423C42.726 47.1847 42.1878 48.1463 41.5225 48.5315C40.1066 49.351 37.0787 48.2857 33.8132 45.4757C33.4388 45.1535 33.0618 44.8096 32.6835 44.4455C33.9495 43.061 35.2147 41.4514 36.4495 39.6638C38.6215 39.4711 40.6735 39.156 42.5344 38.7258C42.626 39.0955 42.7074 39.4581 42.7776 39.8126ZM24.1169 48.3898C22.7336 48.8784 21.6318 48.8924 20.9658 48.5084C19.5486 47.691 18.9594 44.5358 19.7631 40.3033C19.8551 39.8186 19.9647 39.3207 20.091 38.8118C21.9314 39.2187 23.9684 39.5116 26.1456 39.6881C27.3887 41.4373 28.6905 43.0452 30.0024 44.453C29.7157 44.7297 29.4302 44.9931 29.1463 45.2413C27.4032 46.7651 25.6564 47.8461 24.1169 48.3898ZM17.6361 36.1455C15.4453 35.3967 13.6361 34.4235 12.396 33.3616C11.2817 32.4073 10.7191 31.4599 10.7191 30.6911C10.7191 29.0551 13.1581 26.9684 17.226 25.5501C17.7196 25.378 18.2363 25.2158 18.7725 25.0635C19.3347 26.8923 20.0722 28.8043 20.9623 30.7378C20.0607 32.7 19.3128 34.6425 18.745 36.4927C18.3628 36.3829 17.9924 36.2672 17.6361 36.1455ZM19.8085 21.3579C18.9642 17.0428 19.5249 13.7876 20.936 12.9708C22.4391 12.1006 25.7628 13.3413 29.2659 16.4518C29.4898 16.6506 29.7146 16.8587 29.9401 17.074C28.6347 18.4756 27.3448 20.0714 26.1127 21.8103C23.9997 22.0061 21.977 22.3208 20.1174 22.742C20.0004 22.2717 19.8969 21.8097 19.8085 21.3579ZM39.1886 26.1433C38.744 25.3754 38.2876 24.6257 37.8223 23.8964C39.2558 24.0777 40.6293 24.3182 41.9191 24.6126C41.5318 25.8536 41.0492 27.1511 40.4811 28.4813C40.0735 27.7076 39.6425 26.9275 39.1886 26.1433ZM31.2854 18.4456C32.1707 19.4047 33.0573 20.4756 33.9293 21.6374C33.0506 21.5959 32.161 21.5743 31.264 21.5743C30.3755 21.5743 29.4925 21.5954 28.6192 21.6362C29.4921 20.4852 30.3863 19.4158 31.2854 18.4456ZM23.3317 26.1566C22.8876 26.9267 22.4645 27.7025 22.0634 28.4799C21.5045 27.1543 21.0263 25.8509 20.6357 24.5923C21.9176 24.3054 23.2846 24.0709 24.7089 23.8931C24.2371 24.6291 23.7769 25.3843 23.3317 26.1564V26.1566ZM24.75 37.626C23.2783 37.4618 21.8908 37.2394 20.6093 36.9604C21.0061 35.6793 21.4948 34.3481 22.0655 32.994C22.4677 33.7707 22.8925 34.5469 23.3393 35.3187H23.3393C23.7945 36.1049 24.266 36.875 24.75 37.626ZM31.3385 43.0719C30.4289 42.0904 29.5215 41.0047 28.6353 39.8368C29.4956 39.8706 30.3726 39.8879 31.264 39.8879C32.1798 39.8879 33.085 39.8672 33.9761 39.8276C33.1012 41.0164 32.2178 42.1038 31.3385 43.0719ZM40.4994 32.9249C41.0999 34.2937 41.6061 35.618 42.0081 36.8772C40.7054 37.1744 39.2989 37.4138 37.8171 37.5916C38.2835 36.8525 38.7439 36.0899 39.1963 35.3055C39.6539 34.5118 40.0885 33.717 40.4994 32.9249ZM37.5337 34.3466C36.8314 35.5643 36.1104 36.7268 35.3784 37.8241C34.0452 37.9194 32.6678 37.9685 31.264 37.9685C29.8659 37.9685 28.5058 37.9251 27.1962 37.8401C26.4347 36.7284 25.698 35.5625 25.0002 34.3571H25.0004C24.3044 33.155 23.6638 31.9427 23.0834 30.7372C23.6636 29.5289 24.3025 28.3152 24.9945 27.1152L24.9944 27.1155C25.6882 25.9123 26.4184 24.7521 27.1729 23.6473C28.509 23.5463 29.8792 23.4936 31.2639 23.4936H31.264C32.655 23.4936 34.0269 23.5467 35.3626 23.6486C36.1056 24.7453 36.8308 25.9017 37.5274 27.1051C38.2319 28.3219 38.879 29.5275 39.4642 30.7099C38.8808 31.9126 38.2351 33.1303 37.5337 34.3466ZM41.4931 12.9137C42.9976 13.7813 43.5826 17.2804 42.6374 21.8688C42.5771 22.1615 42.5092 22.4597 42.4354 22.762C40.5715 22.3319 38.5474 22.0118 36.4282 21.813C35.1937 20.055 33.9143 18.4567 32.6302 17.0731C32.9755 16.741 33.3202 16.4243 33.6636 16.1254C36.9805 13.2388 40.0806 12.0991 41.4931 12.9137ZM31.264 26.6791C33.4797 26.6791 35.276 28.4753 35.276 30.6911C35.276 32.9068 33.4797 34.703 31.264 34.703C29.0483 34.703 27.252 32.9068 27.252 30.6911C27.252 28.4753 29.0483 26.6791 31.264 26.6791Z" fill="#7E7E7E"/>
</svg>

<svg xmlns="http://www.w3.org/2000/svg" width="62" height="62" fill="none" viewBox="0 0 62 62"><path fill="#7e7e7e" d="M45.74 23.698a30 30 0 0 0-1.446-.455q.122-.501.223-.987c1.095-5.314.38-9.595-2.065-11.005-2.344-1.352-6.177.058-10.048 3.427a30 30 0 0 0-1.12 1.026 28 28 0 0 0-.744-.687c-4.057-3.603-8.124-5.121-10.566-3.707-2.341 1.355-3.035 5.38-2.05 10.417q.144.73.333 1.488-.864.244-1.663.523C11.838 25.396 8.8 27.995 8.8 30.69c0 2.784 3.26 5.577 8.215 7.27q.587.2 1.215.38a29 29 0 0 0-.353 1.604c-.94 4.95-.206 8.88 2.13 10.226 2.412 1.391 6.46-.039 10.402-3.484q.468-.41.938-.864.609.586 1.215 1.108c3.818 3.285 7.589 4.612 9.922 3.262 2.41-1.395 3.193-5.617 2.176-10.753a25 25 0 0 0-.27-1.201q.427-.125.837-.261c5.15-1.706 8.501-4.465 8.501-7.287 0-2.706-3.136-5.322-7.988-6.993m-1.117 12.458q-.37.122-.755.236c-.568-1.8-1.336-3.714-2.275-5.692.896-1.93 1.634-3.82 2.187-5.608q.69.2 1.335.421c4.158 1.431 6.694 3.547 6.694 5.178 0 1.737-2.739 3.992-7.186 5.465m-1.845 3.657c.45 2.27.513 4.324.216 5.93-.268 1.442-.806 2.403-1.471 2.788-1.416.82-4.444-.245-7.71-3.055a28 28 0 0 1-1.13-1.03c1.267-1.385 2.532-2.995 3.767-4.782 2.171-.193 4.223-.508 6.084-.938q.138.555.244 1.087M24.117 48.39c-1.383.488-2.485.502-3.151.118-1.417-.817-2.007-3.972-1.203-8.205q.139-.727.328-1.491c1.84.407 3.877.7 6.055.876a47 47 0 0 0 3.856 4.765q-.43.416-.856.788c-1.743 1.524-3.49 2.605-5.03 3.149m-6.48-12.245c-2.192-.748-4-1.722-5.241-2.783-1.114-.955-1.677-1.902-1.677-2.67 0-1.637 2.44-3.724 6.507-5.142q.741-.258 1.547-.486c.562 1.828 1.3 3.74 2.19 5.674a47 47 0 0 0-2.218 5.755q-.574-.165-1.109-.348m2.171-14.787c-.844-4.315-.283-7.57 1.128-8.387 1.503-.87 4.827.37 8.33 3.48q.336.3.674.623a46 46 0 0 0-3.827 4.736c-2.113.196-4.136.51-5.996.932q-.176-.706-.309-1.384m19.38 4.785a61 61 0 0 0-1.366-2.247 42 42 0 0 1 4.097.717 41 41 0 0 1-1.438 3.868 67 67 0 0 0-1.292-2.338m-7.903-7.697a41 41 0 0 1 2.644 3.191 57 57 0 0 0-5.31 0 42 42 0 0 1 2.666-3.191m-7.953 7.71q-.666 1.157-1.269 2.324a42 42 0 0 1-1.427-3.888 43 43 0 0 1 4.073-.699 56 56 0 0 0-1.377 2.263m1.418 11.47a41 41 0 0 1-4.14-.666 43 43 0 0 1 1.456-3.966 56.791 56.791 0 0 0 2.685 4.632m6.589 5.446a43 43 0 0 1-2.704-3.235q1.291.05 2.629.05 1.375 0 2.712-.06a41 41 0 0 1-2.637 3.245m9.16-10.147a41 41 0 0 1 1.51 3.952c-1.304.297-2.71.537-4.192.715q.7-1.11 1.38-2.286.686-1.192 1.302-2.381m-2.965 1.422a63 63 0 0 1-2.156 3.477c-1.333.095-2.71.145-4.114.145a63 63 0 0 1-4.068-.129A54 54 0 0 1 25 34.357a54 54 0 0 1-1.917-3.62 54 54 0 0 1 1.912-3.622 54 54 0 0 1 2.178-3.468 54 54 0 0 1 4.09-.153h.001c1.391 0 2.763.053 4.099.155a58 58 0 0 1 2.164 3.456 63 63 0 0 1 1.937 3.605 58 58 0 0 1-1.93 3.637m3.96-21.433c1.504.867 2.089 4.366 1.143 8.955q-.09.439-.202.893a46 46 0 0 0-6.007-.949c-1.234-1.758-2.514-3.356-3.798-4.74q.518-.499 1.034-.948c3.316-2.886 6.417-4.026 7.83-3.211m-10.23 13.765a4.012 4.012 0 1 1 0 8.024 4.012 4.012 0 0 1 0-8.024"/></svg>
